X:917
M:C|
L:1/8
K:D
e|f2fd g2ge|f2fd Bcde|f2fd g2gb|afed B2 d>e|f2fd g2ge|
f2fd Bcde|fafd gbge|afed B2d||

